X:1
T:Trio Sonata Op.2 No.2 F-Dur
T:Jean Baptiste Lœillet de Londres (1680 — 1730)
T:Sonata No.2 in F major
T:from " 12 Triosonatas for 2 Violins and Continuo, Op.2 " Transcribed for Recorder, Oboe, Harpsichord from IMSLP#323932 PDF File
T:Public Domain - Non-PD US
T:Public Domain - Non-PD US
T:Public Domain - Non-PD US
T:Public Domain - Non-PD US
T:Public Domain - Non-PD US
T:Public Domain - Non-PD US
T:Public Domain - Non-PD US
T:Public Domain - Non-PD US
T:Public Domain - Non-PD US
C:Jean Baptiste Lœillet de Londres (1680 — 1730)
Z:Public Domain - Non-PD US
%%score [ 1 2 3 ] { ( 4 5 7 8 ) | ( 6 9 10 ) }
L:1/8
Q:1/4=60
M:4/4
K:F
V:1 treble nm="Alto Rec." snm="A."
V:2 treble nm="Oboe" snm="Ob."
V:3 bass nm="fagotto" snm="Bsn."
V:4 treble nm="Harpsichord" snm="Hch."
V:5 treble 
V:7 treble 
V:8 treble 
V:6 bass 
V:9 bass 
V:10 bass 
V:1
"^1. Largo" z8 | z8 | g3 f/e/ ag z c' | af dg ec/d/ ec | f3 f fd/e/ fd | g3 g ge/f/ ge | %6
 a3 a af/g/ af | b/e/f/g/ a/d/e/f/ g/^c/d/e/ fe/d/ | ^cd d>c d a2 g/f/ | ba z d' bg ea | %10
 fd/e/ f^f gb/c'/ d'd | z g/^f/ gb ag (gf) | gg/a/ bg e3 e | ff/g/ af d3 d | ee/f/ ge ^cA a2- | %15
 ag/f/ gg (Tgf) z a | b2 c'2 f2 z e | ^cd dc d2 z f | g/f/e/d/ cb ba/g/ ac' | d'2 z d' g2 c'2- | %20
 c'b/a/ bb ba/g/ ac' | ba/g/ (Tg>f) f_a/g/ ag | f3 g ef fe | f8 |] %24
[M:4/4]"^2. Allegro"[Q:1/4=90] c'a/g/ ae fc z2 | z4 c'a/g/ ae | fc- c/f/e/f/ d/g/f/g/ e/g/a/b/ | %27
 af d'2- d'2 c'2- | c'2 T=b2 c'/g/f/e/ a2- | a/f/e/d/ g2- g/e/d/c/ f2- | f/g/e/f/ Td>c c2 z2 | %31
 z g/f/ gc'/=b/ a/g/f/e/ dg | ec z2 z g/f/ ge | cf d=b c'c z/ e'/d'/c'/ | %34
 d'/c'/d'/e'/ d'/=b/c'/d'/ c'2 z/ a/b/c'/ | =b/a/b/c'/ b/g/a/b/ a2- a/f/g/a/ | %36
 g2- g/c/d/e/ f/e/f/g/ f/a/g/f/ | ec a4 g2- | gf/e/ f4 Te2 | fa d'2- d'2 ^c'2 | %40
 d'/f/g/a/ b2 z/ g/a/b/ a2 | z/ a/g/f/ g/a/g/f/ e/g/f/e/ (Te>d) | d2 z2 z a/g/ ad'/c'/ | %43
 b/a/g/f/ ea fd z2 | z a/g/ af dg e^c' | d'd z/ d/e/f/ e/d/e/f/ e/^c/d/e/ | %46
 d2 z/ b/c'/d'/ c'/b/c'/d'/ c'/a/b/c'/ | b2- b/b/a/g/ a2- a/^f/g/a/ | %48
 g2- g/b/a/g/ ^f/a/g/f/ g/b/a/g/ | ^f/a/g/f/ g/b/a/g/ a/c'/b/a/ b/d'/c'/b/ | %50
 a/c'/b/a/ b/d'/c'/b/ a/c'/b/a/ b^f | gd z2 z4 | d'b/a/ b^f gd- d/g/=f/g/ | %53
 e/a/g/a/ ^f/a/b/c'/ bg _e'2- | e'2 d'2- d'g c'2- | c'2 b2- ba/g/ a2- | ad g4 T^f2 | %57
 g/b/a/g/ ^f/a/g/f/ g/b/a/g/ f/a/g/f/ | g/^f/g/a/ (Tf>g) g(d'/c'/) (c'/=b/)(b/a/) | %59
 ^ga- ag a/c'/=b/a/ g/b/a/g/ | a/c'/=b/a/ ^g/b/a/g/ a/g/a/b/ (Tg>a) | a/e/d/c/ (T=B>A) A2 z2 | %62
 c'a/g/ ae fc z2 | z4 c'a/g/ ae | fc- c/f/e/f/ d/g/f/g/ e/g/a/b/ | %65
 a/a/b/c'/ d'2- d'/d'/c'/=b/ c'2- | c'/c'/b/a/ b2- b/b/a/g/ a2- | a/a/g/f/ g2- g/g/f/e/ f2- | %68
 f/e/f/g/ (Te>f) f/a/g/f/ g/b/a/g/ | a/c'/b/a/ b/d'/c'/b/ c'/d'/c'/d'/ b/c'/b/c'/ | %70
 a/c'/b/a/ g/b/a/g/ a/g/a/b/ (Tg>f) | f/e/f/g/ (Te>f) f4 |] %72
[M:3/2]"^3. Largo"[Q:1/2=50] (a2 g2 a2) g2 f2 g2 | e4 e2 f2 g2 f2 | e4 e2 f2 g2 e2 | f4 d4 b4- | %76
 b4 a2 g2 a4- | a4 Tg6 a2 | a4 e6 e2 | f4 (T^f6 f2) | g4 f6 g2 | e8 g4- | g4 f2 e2 d2 c2 | d8 b4- | %84
 b4 a4 g4 | a2 b2 (Tg6 f2) | f12 | a2 g2 a2 g2 f2 g2 | e4 e2 f2 g2 f2 | e4 e2 f2 g2 e2 | %90
 f4 d4 b4- | b4 a2 g2 a4- | a4 g2 f2 g4- | g4 f2 e2 f4 | f4 _e4 d4 | ^c8 a4- | a4 g4 b4 | e8 f4- | %98
 f4 (Te6 d2) | d4 f4 e4 | d4 Td8 | ^c8 z4 |][M:3/8]"^4. Allegro"[Q:3/8=50] cf/g/e/g/ | %103
 (f/e/f/)c/A/c/ | fa/b/g/b/ | (a/g/a/)f/c/f/ | a/>b/c'b | a/>b/c'b | a/c'/b/a/g/f/ | g3 :| %110
 g/>a/bb | bg/a/b | bc'/b/a/g/ | a3 | (c'/b/a/)b/c'/b/ | afc | (c'/b/a/)b/c'/b/ | afc | c'3 | b3 | %120
 a/b/ g>f | f3 |:[K:Eb]"^Menuet\nAlto & Bass" agf/=e/ | fcf/g/ | agc' | Ta2 g | c'b/a/g/f/ | %127
 =e/f/gc | f/g/ab | Tg3 :| c'/>_d'/e'e' | e'3 | c'_d'/c'/b/a/ | ba/g/f/e/ | a/>b/c'a | b/>c'/_d'b | %136
 c'_d'/c'/b/c'/ | a3 | c'b/a/g/f/ | c'b/a/g/f/ | _d'/c'/b/a/g/f/ | =e3 | g/>a/bb | b3 | g/>a/bb | %145
 b3 | _d'c'/b/a/g/ | c'b/a/g/f/ | g(T=e>f) | f3 |:[K:F]"^Allegro" fa/b/g/b/ | Tag/a/f | f2 e | f3 | %154
 (ag)e | (ag)e | a(Tf>e) | e3 :| a/>b/c'a | bfd | =b/>c'/d'b | c'ge | cac' | f(b/a/)a/g/ | %164
 (g/f/)(f/a/)(g/f/) | (e/d/) e2 | fa/b/g/b/ | Tag/a/f | f2 e | f3 | a/>b/c'a | fd'=b | gce | %173
 (f/e/f/)g/e/g/ | (f/g/a/)b/g/b/ | (a/g/a/)b/g/b/ | (a/g/) (Tg>f) | f3 |] %178
V:2
 c3 B/A/ dc z f | dBGc AF/G/ A=B | ce/f/ gG z c/=B/ ce | fA (T=B>c) c3 G | cA/B/ cA d3 d | %5
 d=B/c/ dB e3 e | e^c/d/ ec f3 f | f e2 d2 ^c dg | gf/e/ (Te>d) df/g/ aA | z d/^c/ df e d2 Tc | %10
 d2 z2 d3 c/B/ | _ed z g ecAd | BB/c/ dB G3 G | AA/B/ cA F3 F | GG/A/ BG E2 z ^c | d2 z e AA (f2 | %16
 f)_e/d/ ee ed/^c/ dg | gf/e/ (Te>d) dB/A/ B2- | Bg gg cf/e/ fa | ag/f/ gf ec z e | f2 g2 c2- ca | %21
 d/e/f/g/ (Te>f) f2 z c | cB/_A/ BB BA/G/ (TG>F) | F8 |][M:4/4] z4 z c/B/ cf/e/ | %25
 d/c/B/A/ Gc AF z2 | z c/B/ cA FB Ge | fF z/ a/g/f/ g/f/g/a/ g/c/d/e/ | %28
 f/e/f/g/ f/a/g/f/ e2 z/ e/d/c/ | d2- d/d/c/B/ c2- c/c/B/A/ | =BccB ge/d/ eB | cG z2 z4 | %32
 ge/d/ e=B cG- G/c/B/c/ | A/d/c/d/ =B/d/e/f/ ec a2- | a2 g2- gf/e/ f2- | f2 e2- e/c/d/e/ (d2 | %36
 d/)d/c/=B/ c4 TB2 | c2 z/ c/d/e/ d/c/d/e/ d/B/c/d/ | c2 z/ F/G/A/ B/A/B/c/ B/d/c/B/ | %39
 A2 z/ f/g/a/ g/f/g/a/ g/e/f/g/ | f2 z/ d/e/f/ e2 z/ c/d/e/ | d/f/e/d/ e/f/e/d/ ^c/e/d/c/ (Tc>d) | %42
 df/e/ f^cdA z2 | z4 af/e/ f^c | dA- A/d/c/d/ =B/e/d/e/ ^c/e/f/g/ | fd b4 a2- | ad g4 T^f2 | %47
 g/d/_e/f/ e2- e/c/d/e/ d2- | d/d/c/B/ c/d/c/B/ A/c/B/A/ B/d/c/B/ | %49
 A/c/B/A/ B/g/^f/e/ f/a/g/f/ g/b/a/g/ | ^f/a/g/f/ g/b/a/g/ f2 z d | Bd/c/ dg/f/ _e/d/c/B/ Ad | %52
 BG z2 z d/c/ dB | Gc A^f gG z/ g/a/b/ | a/g/a/b/ a/f/g/a/ g2 z/ _e/f/g/ | %55
 f/_e/f/g/ f/d/e/f/ e2 z/ c/d/e/ | d/c/d/_e/ d/B/c/d/ c/B/c/d/ c/A/B/c/ | %57
 B/d/c/B/ A/c/B/A/ B/d/c/B/ A/c/B/A/ | B/A/B/c/ (TA>G) G3 d | =Bc (TB>A) A/e/d/c/ B/d/c/B/ | %60
 c/e/d/c/ =B/d/c/B/ c/B/c/d/ (TB>A) | A/c/=B/A/ (T^G>A) A2 z2 | z4 z c/B/ cf/e/ | %63
 d/c/B/A/ Gc AF z2 | z c/B/ cAFB Ge | fF z/ a/g/f/ g2- g/g/f/e/ | f2- f/f/e/d/ e2- e/e/d/c/ | %67
 d2- d/d/c/B/ c2- c/c/B/A/ | B/G/A/B/ (TG>F) F2 z2 | f/a/g/f/ g/b/a/g/ a/b/a/b/ g/a/g/a/ | %70
 f/a/g/f/ e/g/f/e/ f/e/f/g/ (Te>f) | f/A/B/c/ (TG>F) F4 |][M:3/2] (f2 e2 f2) e2 d2 e2 | %73
 ^c4 c2 d2 e2 d2 | ^c4 c2 d2 e2 c2 | d8 f4 | e8 e4 | d4 d8 | ^c12 | z4 A6 A2 | B4 (T=B6 B2) | %81
 c4 B6 c2 | A8 a4- | a4 g2 f2 e2 d2 | e4 f4 e4 | f2 g2 (Te6 f2) | f12 | f2 e2 f2 e2 d2 e2 | %88
 ^c4 c2 d2 e2 d2 | ^c4 c2 d2 e2 c2 | d4 f4 g4 | e8 f4 | d8 e4 | ^c8 d4 | B8 g4- | g4 f4 e4 | %96
 d8 e4 | ^c8 d4- | d4 (T^c6 d2) | d4 B4 A4- | A4 G8 | A8 z4 |][M:3/8] z3 | z3 | cf/g/e/g/ | %105
 (f/e/f/)c/A/c/ | f/>g/ag | f/>g/ag | fg/f/e/d/ | e3 :| e/>f/gg | ge/f/g | ga/g/f/e/ | f3 | %114
 (a/g/f/)g/a/g/ | fcf | (a/g/f/)g/a/g/ | fcf | a3 | g3 | f/g/ e>f | f3 |:[K:Eb] z3 | z3 | z3 | z3 | %126
 z3 | z3 | z3 | z3 :| z3 | z3 | z3 | z3 | z3 | z3 | z3 | z3 | z3 | z3 | z3 | z3 | z3 | z3 | z3 | %145
 z3 | z3 | z3 | z3 | z3 |:[K:F] cf/g/e/g/ | (f/e/f/)c/d/B/ | (c/B/c/)A/B/G/ | TAG/A/F | %154
 A/B/c/B/c/G/ | A/B/c/B/c/G/ | A/d/(=B/c/)(d/B/) | c3 :| c(f/g/)(e/f/) | (d/e/)(c/d/)(B/c/) | %160
 d(g/a/)(f/g/) | (e/f/)(d/e/)(c/e/) | f(f/e/)(e/d/) | d(d/c/)(c/B/) | (B/A/)(A/c/)(B/A/) | %165
 (G/F/) G2 | cf/g/e/g/ | (f/e/f/)c/d/B/ | (c/B/c/)A/B/G/ | TAG/A/F | c/d/(_e/d/e/)f/ | %171
 d/e/(f/e/f/)g/ | e/f/g/a/b/g/ | (a/g/a/)b/g/b/ | (a/g/f/)g/e/g/ | (f/e/f/)g/e/g/ | (f/e/) (e>f) | %177
 f3 |] %178
V:3
 F,G,A,F, B,A,/G,/ A,F, | B,G, CC, F,F,/E,/ F,D, | C,D, E,C, F,E,/D,/ E,C, | F,D, G,G,, C,G, CB, | %4
 A,F,/G,/ A,F, B,3 B, | B,G,/A,/ B,G, C3 C | ^CA,/=B,/ CA, DD,/E,/ F,D, | G,2 F,2 E,2 D,B,, | %8
 A,,D, A,A,, D,E, F,D, | G,F,/E,/ F,D, G,E, A,A,, | D,A, DC B,G,/A,/ B,G, | CB,/A,/ B,G, CA, DD, | %12
 G,3 G, CC/B,/ CC, | F,3 F, B,B,/A,/ B,B,, | E,3 E, A,A,, z A, | B,2 ^C2 DD, z D, | %16
 G,2 A,2 B,B,, z G, | A,D, A,A,, D,2 z D, | E,2 z E, F,F,, z F, | B,2 =B,2 CC, z C, | %20
 D,2 E,2 F,F,/E,/ F,F,, | B,,B, CC, F,2 z _E, | _D,2 z B,, C,F, CC, | F,8 |] %24
[M:4/4] F,3 C, D,A,/G,/ A,F, | B,G, CC, F,3 C, | D,A,/G,/ A,F, B,G, CC, | F,F/E/ FD EE EC | %28
 DD DG, CC, F,A, | B,B,, E,G, A,A,, D,F, | G,C, G,G,, C,3 G, | A,E,/D,/ E,C, F,D, G,G,, | %32
 C,3 G, A,E,/D,/ E,C, | F,D, G,G,, C,C/B,/ CA, | B,B, B,G, A,A,, z F, | G,G, G,C, F,F,, z F, | %36
 E,E, E,C, D,2 G,,2 | C,C/B,/ CA, B,B, B,G, | A,A,, z F, G,G, G,C, | F,F/E/ FD EE EC | %40
 DD, G,B, CC, F,A, | B,B,, E,G, A,D, A,A,, | D,3 A, B,F,/E,/ F,D, | G,E, A,A,, D,2 z A, | %44
 B,F,/E,/ F,D, G,E, A,A,, | D,D/C/ DB, CC CF, | B,B,/A,/ B,G, A,A, A,D, | G,G,, C,_E, F,F,, B,,D, | %48
 _E,_E,, A,,C, D,D,, z2 | D,D,, z2 DD, z2 | DD, G,G,, D,D,, z D, | _E,B,,/A,,/ B,,G,, C,A,, D,D,, | %52
 G,,3 D _EB,/A,/ B,G, | CA, DD, G,,G,/F,/ G,_E, | F,F, F,B,, _E,E,/D,/ E,C, | %55
 D,D, D,G,, C,C/B,/ CF, | B,B, B,G, A,A, A,D, | G,G,, D,D,, G,,G, D,D,, | G,,C, D,D,, G,, G,2 F, | %59
 E,A,, E,E,, A,,A, E,E,, | A,,A, E,E,, A,,A, E,E,, | A,,D, E,E,, A,,C/D/ C/B,/A,/G,/ | %62
 F,3 C, D,A,/G,/ A,F, | B,G, CC, F,3 C, | D,A,/G,/ A,F, B,G, CC, | F,F FF EE, z/ E/D/C/ | %66
 DD DG, CC, z/ C/B,/A,/ | B,B, B,G, A,A,, z/ A,/G,/F,/ | G,F, CC, F,,F, E,C, | F,F,, z2 F,2 G,2 | %70
 A,B, CC, F,B,, C,C,, | F,,B,, C,C,, F,,4 |][M:3/2] D8 D,4 | A,8 z4 | A,,8 A,4 | D,8 D4 | C8 C4 | %77
 B,4 B,8 | A,8 A,,4 | D,4 D4 D,4 | G,4 G,,4 G,4 | C,4 C4 E,4 | F,8 F,4 | B,4 B,,4 G,4 | %84
 C,4 F,4 C4 | F,4 C4 C,4 | F,12 | D8 D,4 | A,8 D,4 | A,,8 A,4 | D,4 D4 B,4 | C8 A,4 | B,8 G,4 | %93
 A,8 D,4 | G,,8 G,4 | A,8 A,4 | B,8 G,4 | G,8 ^G,4- | G,4 A,4 A,,4 | D,4 D4 C4 | B,4 B,8 | %101
 A,8 z4 |][M:3/8] F,A,C | F,F,, z | F,CC, | F,F,, z | F,F,,C, | F,F,,C, | F,B,,D, | C,C,,C, :| %110
 C2 z | G,2 z | E,2 C, | F,/E,/F,/C,/A,,/C,/ | F,,2 z | F,/E,/F,/C,/A,,/C,/ | F,,2 z | %117
 F,/E,/F,/C,/A,,/C,/ | F,/E,/F,/G,/A,/F,/ | G,/F,/G,/A,/B,/G,/ | A,/F,/ CC, | F,3 |:[K:Eb] F,CB, | %123
 A,2 G, | F,CC, | F,F,,C, | A,,A,B, | C2 B, | A,F,B,, | C,C,,C, :| A,2 A, | G,E,G, | A,A,,A, | %133
 E,E,_D, | C,A,,A, | G,E,G, | A,_D,E, | A,,3 | F,F,,F, | =E,2 F, | B,,C,_D, | C,=E,G, | C3 | %143
 C,=E,G, | C3 | C,=E,G, | B,3 | A,3 | B,CC, | F,3 |:[K:F] F,2 C, | F,2 B, | A,2 G, | F,C,F,, | %154
 F,E,C, | F,E,C, | F,D,G, | CC,C :| F,A,F, | B,B,,B, | G,=B,G, | CC,C | A,F,A, | B,B,,B, | E,E,F, | %165
 C C,2 | F,2 C, | F,F,B, | A,2 G, | F,C,F,, | F,A,F, | B,=B,G, | CE,C, | F,A,C | F,F,,C, | F,A,C | %176
 F,CC, | F,3 |] %178
V:4
 AG FF F F2 A | GF FE FA/G/ FF | c3 c c3 c | [DAc]2 [DG=B]2 [EGc]3 [Ec] | c3 c [FBd]3 [Fd] | %5
 d3 d [ce]3 e | e3 e ff/e/ dd | de e d [Bd][A^c][Ad][Gd] | [G^c][Fd] dc d3 d | d3 d d2 d^c | %10
 [FAd]3 [Ad] dB/A/ G[Gd] | [_EGc] [DGd]2 [DGB] [EGA]2 G^F | [DGB]3 [DGB] [=EGB]3 [EGB] | %13
 [CFA]3 [CFA] [DFA]3 [DFA] | [DEG]3 [DEG] [^CEA]2 z [EA] | [FA]G AA A2 z [FAd] | %16
 d_e [ce]2 ed z [B=e] | ^c ddc d2 z [FBd] | [GB=c]2 z [GBc] BA z [FAc] | %19
 [Fd]2 [Fd]2 [EGc]2 z [Gc] | [Ac]B cc c3 [FAc] | d2 cB _A2 z [Gc] | %22
 [_Ac]B z [FG_d] [=EGc][FAc] [EB][EB] | [F=A]8 |][M:4/4] [CA]3 [EG] [DF] [CF]2 [FA] | %25
 [FG]2 G2 [FA]3 [EG] | [DF] [CF]2 [FAc] [FGd]2 [EGc]2 | [Fc] z z d [=Bd]2 c2 | %28
 [Ac]2 [G=B]2 [Gc]2 [Ac]2 | [DA_B]2 [DGB]2 [CGA]2 [CFA]2 | G2 [DG]2 [EG]3 ([DF] | %31
 [CE]) [CG]2 [EG] z c2 =B | c3 z z c2 c | [DAc]2 [DG=B]2 [EGc]2 [EAc]2 | %34
 [DA=B]2 [DGB]2 GF z [CFA] | [=B,FG]2 [B,EG]2 [A,EF]2 z [A,DA] | G3 [Gc] [Fc]2 [F=B]2 | %37
 [Ec]2 [EAc]2 [DAB]2 [DGB]2 | GF z [Acf] [GBf]2 [GBe]2 | [Af]2 [Adf]2 [Gde]2 [G^ce]2 | %40
 [Fd]2 [FBd]2 [EBc]2 [EAc]2 | [DAB]2 [DGB]2 A2 A2 | [FA]3 ([EG] [DF] [DA]2) [FA] | z d2 ^c d3 z | %44
 z d2 d d2 ^c2 | [FAd]2 [F_Bd]2 [EBc]2 [EAc]2 | [DAB]2 [DGB]2 [CGA]2 [C^FA]2 | %47
 [B,G]2 [B,_EG]2 [A,EF]2 [A,DF]2 | [G,D_E]2 CA, [^F,A,D]2 z2 | [^F,A,D]2 z2 [^FAd]2 z2 | %50
 [^FAd]2 [GBd]2 [FAd]2 z [Ac] | [GB] [Gd]2 [Bd] z g2 ^f | g3 z z g2 g | %53
 [Aeg]2 [Ad^f]2 [Bdg]2 [B_eg]2 | [A_ef]2 [Adf]2 [Gde]2 [Gce]2 | [Fcd]2 [FBd]2 [_EBc]2 [EAc]2 | %56
 [DAB]2 [DGB]2 [CGA]2 [C^FA]2 | GD [A,D^F]2 [B,DG]2 [A,DF]2 | G2 ^F2 G [DG]2 A | %59
 [D^G][CA] AG [CEA]2 [EGB]2 | [EAc]2 [EGB]2 [EAc]2 [EGB]2 | [EAc][FA=B] B/c/d c2 z2 | %62
 [CA]3 [EG] [DF] [CF]2 [FA] | [FG]2 G2 [FA]3 [EG] | [DF]2 [CF][FAc] [FGd]2 [EGc]2 | %65
 [FAc]2 [Ad]2 [=Bd]c z [Gc] | [FAc]2 [F_B]2 [GB]A z [EA] | [DFA]2 [DG]2 [EG]F z [CF] | %68
 [EB][FA] G/A/B A[Ac] c-[ce] | [Acf]2 z2 [Acf]2 [Bce]2 | f2 e2 [Af][Bd] cB | A>G G/A/B A4 |] %72
[M:3/2] [FAd]8 [FAd]4 | [EA^c]8 z4 | [EA^c]8 [EAc]4 | [FAd]8 [FBd]4 | [EBe]8 [EA-e]4 | [FAd]4 d8 | %78
 A4 A2 B2 A2 G2 | d4 d2 _e2 d2 c2 | d4 G2 A2 G2 F2 | c4 c2 d2 c2 B2 | A8 [FA]4 | d12 | c8 c4 | %85
 c4 c8 | F6 [GB]2 [FA]2 [GB]2 | [FA]8 [FAd]4 | [EA^c]8 [FA]4 | [EA]8 [EAA^c]4 | [FAd]8 [Gd]4 | %91
 [Ec]8 [Fc]4 | [DB]8 [EB]4 | A8 F4 | B8 B4 | [^CA]8 [A^c]4 | [Dd]8 [EBd]4 | [A^c]8 [=Bd-]4 | %98
 [Bd]4 [A^c]8 | [FAd]4 [FA]4 [EA]4 | [FA]4 G4- [EG]4 | [^CEA]8 z4 |][M:3/8] [FA]F[EG] | [FA]2 z | %104
 c c2 | [FAc]2 z | [Acf]2 [Gce] | [Acf]2 [Gce] | [Acf]!arpeggio![G-df-][G=Bf] | [Gce]3 :| %110
 [Gce]2 z | [Gce]2 z | c2 c | [FAc]3 | [Acf]2 z | [FAc]2 z | [Af]2 z | [Ac]2 z | [FAc]2 [Fc] | %119
 [EBc]2 [EGc] | cG/A/B | [FAc]3 |:[K:Eb] c2 c | agf/=e/ | ff=e | [Acf]2 [Gc=e] | [Fcf][Fc][FB_d] | %127
 _dc/B/A/G/ | [Fc][FAc][FG_d] | [=EGc]3 :| [C_EA]2 [CEA] | [B,B]2 [B,B] | [CEA][EA]-[EAc] | B2 z | %134
 AA/>B/c | BG/>A/B | [CEA][B,FA][B,EG] | [EA]3 | [FA]2 [CA] | [CG]2 [CA] | GG/A/B | B/c/B/A/G/F/ | %142
 =EE-[EG] | B3 | =EE-[EG] | B3 | [_D=EG]3 | [CFA]3 | GG/A/B | [CFA]3 |:[K:F] [FAc]2 [EGc] | %151
 [FAc]2 [FBd] | c-[Ac][Bc] | [FAc]3 | c2 c | c2 c | [FAc] [FG^B]2 | [EGc]3 :| [CFA][CF][CFA] | %159
 [DFB]3 | [DG^B][DG][DGB] | [EGc]3 | c-[Ac]c | dfd | [GBc] [FAc]2 | [EGc]3 | [FAc]2 [EGc] | %167
 [FAc][Fc][FBd] | c-[Ac][Bc] | [FAc]3 | [CFA][CF][_EFc] | [DFB][DG][FGd] | [EGc][GBc][GBce] | %173
 [Acf]2 [Gce] | [Acf]2 [Gce] | [Acf]2 [Gce] | [Acf] c[Bc] | [FAcf]3 |] %178
V:5
 C3 C D C2 C | D2 C2 C C2 D | ED CE [FA] [CG]2 [EG] | x8 | FA/G/ F[FA] x4 | G=B/A/ G[GB] G3 G | %6
 A^c/=B/ A[Ac] [Ad] A2 [FA] | FE F2 G2 FG | A2 [EA]2 FE DF | [GB] [DA]2 [FA] [EB]2 [EA]2 | %10
 x3 z [DG] D2 D | x6 [DA]2 | x8 | x8 | x8 | D2 [EG]2 GF x2 | G2 FF F2 x G | GF [EA]2 [FA]2 x2 | %18
 x4 [Fc]2 x2 | AG GG x4 | F2 [GB]2 F3 x | F2 [EG]2 F2 x2 | F2 x4 G2 | x8 |][M:4/4] x8 | %25
 x2 FE C3 x | x8 | AA/G/ AA G4 | F4 E2 E2 | x8 | [=B,F][CE] CB, C3 z | x4 [D-A]2 [DG]2 | %32
 [EG]3 [DF] [CE] [CG]2 [EG] | x8 | x4 [CA]2 x2 | x8 | [=B,D] C2 E D2 D2 | E2 x6 | [CA]2 x6 | x8 | %40
 x8 | x4 [^CG][DF] C2 | D3 x5 | [E-B]2 [EA]2 [FA]3 [EG] | [DF] [DA]2 [FA] [E^B]2 [EA]2 | x8 | x8 | %47
 x8 | x2 [G,_E]2 x4 | x8 | x7 ^F | G D2 z [A-_e]2 [Ad]2 | [Bd]3 [Ac] [GB] [Gd]2 [Bd] | x8 | x8 | %55
 x8 | x8 | [B,G]2 x6 | [B,D][A,_E] A,2 B, B,2 D | E2 [=B,E]2 x4 | x8 | x2 [E^G]2 [EA]2 x2 | x8 | %63
 x2 FE C3 x | x8 | x4 G2 x2 | x4 E2 x2 | x4 C2 x2 | C2 [CE]2 [CF] z G2 | x8 | [Ac][Gd] G2 FF E2 | %71
 [CF-][DF] [CE]2 [CF]4 |][M:3/2] x12 | x12 | x12 | x12 | x12 | x12 | ^c8 x4 | F4 ^F8 | B4 =B8 | %81
 E4 E4 G4 | G4 F4 F4- | [FA]4 G4- [GB]4 | [GB]4 [FA]4 [EG]4 | F4 E8 | %86
 (!arpeggio![Ac]2 [GB]2 [Ac]2) x6 | x12 | x12 | x12 | x12 | x12 | x12 | ^C8 [DA]4 | %94
 [DF]4 _E4 [DG]4 | G4 F4 E4 | A4 G4 z4 | E8 F4- | F4 E2 F2 G4 | x12 | D8 x4 | x12 |][M:3/8] x3 | %103
 x3 | [FA][FA][EG] | x3 | x3 | x3 | x3 | x3 :| x3 | x3 | [GB]2 z | x3 | x3 | x3 | x3 | x3 | x3 | %119
 x3 | [Fc] [Ec]2 | x3 |:[K:Eb] AGG | F2 B | [Ac] [Gc]2 | x3 | x3 | !arpeggio![=EG]2 [Ec] | x3 | %129
 x3 :| x3 | E/>F/GE | x3 | [EG]E-[EG] | EEE | EE[_DE] | x3 | x3 | x3 | x3 | F F2 | =E2 x | x3 | %143
 =E/>F/GG | x3 | =E/>F/GG | x3 | x3 | [_DF] [C=E]2 | x3 |:[K:F] x3 | x3 | F2 E | x3 | [FA]G[EG] | %155
 [FA]G[EG] | x3 | x3 :| x3 | x3 | x3 | x3 | F2 F | [FB]2 [FB] | x3 | x3 | x3 | x3 | F2 E | x3 | %170
 x3 | x3 | x3 | x3 | x3 | x3 | x [Ge]2 | x3 |] %178
V:6
 F,G, A,F, B,A,/G,/ A,F, | B,G, CC, F,F,/E,/ F,D, | C,D, E,C, F,E,/D,/ E,C, | F,D, G,G,, C,G, CB, | %4
 A,F,/G,/ A,F, B,3 B, | B,G,/A,/ B,G, C3 C | ^CA,/=B,/ CA, DD,/E,/ F,D, | G,2 F,2 E,2 D,B,, | %8
 A,,D, A,A,, D,E, F,D, | G,F,/E,/ F,D, G,E, A,A,, | D,A, DC B,G,/A,/ B,G, | CB,/A,/ B,G, CA, DD, | %12
 G,3 G, CC/B,/ CC, | F,3 F, B,B,/A,/ B,B,, | E,3 E, A,A,, z A, | B,2 ^C2 DD, z D, | %16
 G,2 A,2 B,B,, z G, | A,D, A,A,, D,2 z D, | E,2 z E, F,F,, z F, | B,2 =B,2 CC, z C, | %20
 D,2 E,2 F,F,/E,/ F,F,, | B,,B, C-C, F,2 z _E, | _D,2 z B,, C,F, C-C, | [F,C]8 |] %24
[M:4/4] F,3 C, D,A,/G,/ A,F, | B,G, CC, F,3 C, | D,A,/G,/ A,F, B,G, CC, | F,F/E/ FD EE EC | %28
 DD DG, CC, F,A, | B,B,, E,G, A,A,, D,F, | G,C, G,G,, C,3 G, | A,E,/D,/ E,C, F,D, G,G,, | %32
 C,3 G, A,E,/D,/ E,C, | F,D, G,G,, C,C/B,/ CA, | B,B, B,G, A,A,, z F, | G,G, G,C, F,F,, z F, | %36
 E,E, E,C, D,2 G,,2 | C,C/B,/ CA, B,B, B,G, | A,A,, z F, G,G, G,C, | F,F/E/ FD EE EC | %40
 DD, G,B, CC, F,A, | B,B,, E,G, A,D, A,A,, | D,3 A, B,F,/E,/ F,D, | G,E, A,A,, D,2 z A, | %44
 B,F,/E,/ F,D, G,E, A,A,, | D,D/C/ DB, CC CF, | B,B,/A,/ B,G, A,A, A,D, | G,G,, C,_E, F,F,, B,,D, | %48
 _E,_E,, A,,C, D,D,, z2 | D,D,, z2 DD, z2 | DD, G,G,, D,D,, z D, | _E,B,,/A,,/ B,,G,, C,A,, D,D,, | %52
 G,,3 D _EB,/A,/ B,G, | CA, DD, G,,G,/F,/ G,_E, | F,F, F,B,, _E,E,/D,/ E,C, | %55
 D,D, D,G,, C,C/B,/ CF, | B,B, B,G, A,A, A,D, | G,G,, D,D,, G,,G, D,D,, | G,,C, D,D,, G,, G,2 F, | %59
 E,A,, E,E,, A,,A, E,E,, | A,,A, E,E,, A,,A, E,E,, | A,,D, E,E,, A,,C/D/ C/B,/A,/G,/ | %62
 F,3 C, D,A,/G,/ A,F, | B,G, CC, F,3 C, | D,A,/G,/ A,F, B,G, CC, | F,F FF EE, z/ E/D/C/ | %66
 DD DG, CC, z/ C/B,/A,/ | B,B, B,G, A,A,, z/ A,/G,/F,/ | G,F, CC, F,,F, E,C, | F,F,, z2 F,2 G,2 | %70
 A,B, CC, F,B,, C,C,, | F,,B,, C,C,, F,,4 |][M:3/2] D8 D,4 | A,8 z4 | A,,8 A,4 | D,8 D4 | C8 C4 | %77
 B,4 B,8 | A,8 A,,4 | D4 D4 D,4 | G,4 G,,4 G,4 | C,4 C4 E,4 | [F,C]8 F,4 | B,4 B,,4 G,4 | %84
 C,4 F,4 C4 | F,4 C4 C,4 | F,12 | D8 D,4 | A,8 D,4 | A,,8 A,4 | D,4 D4 B,4 | C8 A,4 | B,8 G,4 | %93
 A,8 D,4 | G,,8 G,4 | A,8 A,4 | B,8 G,4 | G,8 ^G,4- | G,4 A,4 A,,4 | D,4 D4 C4 | B,4 B,8 | %101
 A,8 z4 |][M:3/8] F,A,C | F,F,, z | F,CC, | F,F,, z | F,F,,C, | F,F,,C, | F,B,,D, | C,C,,C, :| %110
 C2 z | G,2 z | E,2 C, | F,/E,/F,/C,/A,,/C,/ | F,,2 z | F,/E,/F,/C,/A,,/C,/ | F,,2 z | %117
 F,/E,/F,/C,/A,,/C,/ | F,/E,/F,/G,/A,/F,/ | G,/F,/G,/A,/B,/G,/ | A,/F,/ CC, | F,3 |:[K:Eb] F,CB, | %123
 A,2 G, | F,CC, | F,F,,C, | A,,A,B, | C2 B, | A,F,B,, | C,C,,C, :| A,2 A, | G,E,G, | A,A,,A, | %133
 E,E,_D, | C,A,,A, | G,E,G, | A,_D,E, | A,,3 | F,F,,F, | =E,2 F, | B,,C,_D, | C,=E,G, | C3 | %143
 C,=E,G, | C3 | C,=E,G, | B,3 | A,3 | B,CC, | F,3 |:[K:F] F,2 C, | F,2 B, | A,2 G, | F,C,F,, | %154
 F,E,C, | F,E,C, | F,D,G, | CC,C :| F,A,F, | B,B,,B, | G,=B,G, | CC,C | A,F,A, | B,B,,B, | %164
 E,E,F,, | C C,2 | F,2 C, | F,F,B, | A,2 G, | F,C,F,, | F,A,F, | B,=B,G, | CE,C, | F,A,C | %174
 F,F,,C, | F,A,C | F,CC, | F,3 |] %178
V:7
 x8 | x8 | GG/F/ GG x4 | x8 | x8 | x8 | x8 | B2 A2 x4 | x4 AA/G/ AA | x8 | x8 | x8 | x8 | x8 | x8 | %15
 x8 | B2 x2 B2 x2 | x8 | x8 | x8 | x4 B A2 x | A>G x6 | x8 | x8 |][M:4/4] x8 | x8 | x8 | x8 | x8 | %29
 x8 | x8 | x8 | x8 | x8 | x8 | x8 | x8 | x8 | x8 | x8 | x8 | x6 E/F/G | x8 | x8 | x8 | x8 | x8 | %47
 x8 | x8 | x8 | x8 | x8 | x8 | x8 | x8 | x8 | x8 | x8 | x2 DC x4 | x8 | x8 | x8 | x8 | x8 | x8 | %65
 x8 | x8 | x8 | x8 | x8 | x2 cB x4 | x8 |][M:3/2] x12 | x12 | x12 | x12 | x12 | x4 (G4 [DG]4) | %78
 x12 | x12 | x4 D8 | x12 | x12 | x12 | x12 | A2 G2 G2 A2 B4 | x12 | x12 | x12 | x12 | x12 | x12 | %92
 x12 | x12 | x12 | x12 | x12 | x12 | x12 | x12 | x12 | x12 |][M:3/8] x3 | x3 | x3 | x3 | x3 | x3 | %108
 x3 | x3 :| x3 | x3 | x3 | x3 | x3 | x3 | x3 | x3 | x3 | x3 | x3 | x3 |:[K:Eb] x3 | x3 | x3 | x3 | %126
 x3 | x3 | x3 | x3 :| x3 | x3 | x3 | x3 | x3 | x3 | x3 | x3 | x3 | x3 | x3 | x3 | x3 | x3 | x3 | %145
 x3 | x3 | x3 | x3 | x3 |:[K:F] x3 | x3 | x3 | x3 | x3 | x3 | x3 | x3 :| x3 | x3 | x3 | x3 | x3 | %163
 x3 | x3 | x3 | x3 | x3 | x3 | x3 | x3 | x3 | x3 | x3 | x3 | x3 | x3 | x3 |] %178
V:8
 x8 | x8 | x8 | x8 | x8 | x8 | x8 | x8 | x8 | x8 | x8 | x8 | x8 | x8 | x8 | z4 D2 x2 | x8 | x8 | %18
 x8 | x8 | x8 | x8 | x8 | x8 |][M:4/4] x8 | x8 | x8 | x8 | x8 | x8 | x8 | x8 | x8 | x8 | x8 | x8 | %36
 x8 | x8 | x8 | x8 | x8 | x8 | x8 | x8 | x8 | x8 | x8 | x8 | x8 | x8 | x8 | x8 | x8 | x8 | x8 | %55
 x8 | x8 | x8 | x8 | x8 | x8 | x8 | x8 | x8 | x8 | x8 | x8 | x8 | x8 | x8 | x8 | x8 |][M:3/2] x12 | %73
 x12 | x12 | x12 | x12 | x12 | x12 | x12 | x12 | x12 | x12 | x12 | x12 | x12 | x12 | x12 | x12 | %89
 x12 | x12 | x12 | x12 | x12 | x12 | x12 | x12 | x12 | x12 | x12 | x12 | x12 |][M:3/8] x3 | x3 | %104
 x3 | x3 | x3 | x3 | x3 | x3 :| x3 | x3 | x3 | x3 | x3 | x3 | x3 | x3 | x3 | x3 | x3 | x3 |: %122
[K:Eb] x3 | x3 | x3 | x3 | x3 | x3 | x3 | x3 :| x3 | x3 | x3 | x3 | x3 | x3 | x3 | x3 | x3 | x3 | %140
 x3 | x3 | x3 | x3 | x3 | x3 | x3 | x3 | x3 | x3 |:[K:F] x3 | x3 | x3 | x3 | x3 | x3 | x3 | x3 :| %158
 x3 | x3 | x3 | x3 | x3 | x3 | x3 | x3 | x3 | x3 | x3 | x3 | x3 | x3 | x3 | x3 | x3 | x3 | x3 | %177
 x3 |] %178
V:9
 x8 | x8 | x8 | x8 | x8 | x8 | x8 | x8 | x8 | x8 | x8 | x8 | x8 | x8 | x8 | x8 | x8 | x8 | x8 | %19
 x8 | x8 | x3 C C2 x2 | x7 C | x8 |][M:4/4] x8 | x8 | x8 | x8 | x8 | x8 | x8 | x8 | x8 | x8 | x8 | %35
 x8 | x8 | x8 | x8 | x8 | x8 | x8 | x8 | x8 | x8 | x8 | x8 | x8 | x8 | x8 | x8 | x8 | x8 | x8 | %54
 x8 | x8 | x8 | x8 | x8 | x8 | x8 | x8 | x8 | x8 | x8 | x8 | x8 | x8 | x8 | x8 | x8 | x8 |] %72
[M:3/2] x12 | x12 | x12 | x12 | x12 | x12 | x12 | x4 D8 | D4 x8 | C4 C8 | x12 | x12 | x12 | x12 | %86
 x12 | x12 | x12 | x12 | x12 | x12 | x12 | x12 | x12 | x12 | x12 | x12 | x12 | x12 | x12 | x12 |] %102
[M:3/8] x3 | x3 | x3 | x3 | x3 | x3 | x3 | x3 :| x3 | x3 | x3 | x3 | x3 | x3 | x3 | x3 | x3 | x3 | %120
 x3 | x3 |:[K:Eb] x3 | x3 | x3 | x3 | x3 | x3 | x3 | x3 :| x3 | x3 | x3 | x3 | x3 | x3 | x3 | %137
 CC,/E,/A, | x3 | x3 | x3 | x3 | x3 | x3 | x3 | x3 | x3 | x3 | x3 | x3 |:[K:F] x3 | x3 | x3 | x3 | %154
 x3 | x3 | x3 | x3 :| x3 | x3 | x3 | x3 | x3 | x3 | x3 | x3 | x3 | x3 | x3 | x3 | x3 | x3 | x3 | %173
 x3 | x3 | x3 | x3 | x3 |] %178
V:10
 x8 | x8 | x8 | x8 | x8 | x8 | x8 | x8 | x8 | x8 | x8 | x8 | x8 | x8 | x8 | x8 | x8 | x8 | x8 | %19
 x8 | x8 | x8 | x8 | x8 |][M:4/4] x8 | x8 | x8 | x8 | x8 | x8 | x8 | x8 | x8 | x8 | x8 | x8 | x8 | %37
 x8 | x8 | x8 | x8 | x8 | x8 | x8 | x8 | x8 | x8 | x8 | x8 | x8 | x8 | x8 | x8 | x8 | x8 | x8 | %56
 x8 | x8 | x8 | x8 | x8 | x8 | x8 | x8 | x8 | x8 | x8 | x8 | x8 | x8 | x8 | x8 |][M:3/2] x12 | %73
 x12 | x12 | x12 | x12 | x12 | x12 | D,4 x8 | x12 | x12 | x12 | x12 | x12 | x12 | x12 | x12 | x12 | %89
 x12 | x12 | x12 | x12 | x12 | x12 | x12 | x12 | x12 | x12 | x12 | x12 | x12 |][M:3/8] x3 | x3 | %104
 x3 | x3 | x3 | x3 | x3 | x3 :| x3 | x3 | x3 | x3 | x3 | x3 | x3 | x3 | x3 | x3 | x3 | x3 |: %122
[K:Eb] x3 | x3 | x3 | x3 | x3 | x3 | x3 | x3 :| x3 | x3 | x3 | x3 | x3 | x3 | x3 | x3 | x3 | x3 | %140
 x3 | x3 | x3 | x3 | x3 | x3 | x3 | x3 | x3 | x3 |:[K:F] x3 | x3 | x3 | x3 | x3 | x3 | x3 | x3 :| %158
 x3 | x3 | x3 | x3 | x3 | x3 | x3 | x3 | x3 | x3 | x3 | x3 | x3 | x3 | x3 | x3 | x3 | x3 | x3 | %177
 x3 |] %178

